X:1
T:Kleiner Bär von Berlin
C:Fred Oldörp
Z:All Rights Reserved
L:1/8
M:4/4
K:E
V:1 treble nm="Voice"
V:1
"E" G,G,B,B, CCEE |"C#m/E" CC- C4 z2 | G,G,B,B, CCEE |"B7" D6 z2 | A,A,B,B, CCEE | CC- C4 z2 | %6
w: Geh ich einst auf ei- ne gro- ße|Rei- se *|ü- bers Meer wohl in ein frem- des|Land,|soll ein klei- nes Bild mich stets be-|glei- ten *|
w: Lie- be al- te Zei- ten sind ent-|schwun- den, *|a- ber die Er- inn- rung bleibt be-|stehn,|und ich denk an längst ver- gang- ne|Stun- den, *|
 DDCC B,B,A,A, |"E" G,6 z2 | G,G,B,B, CCEE |"C#m/E" CC- C4 z2 |"A9" B,B,CC EEGG |"F#" F6 z2 | %12
w: das vor mir auf mei- nem Schreib- tisch|stand.|Als Sym- bol ist es mir lieb und|wich- tig, *|denn es ist das Wap- pen von Ber-|lin.|
w: klei- ner Bär, nur du kannst mich ver-|stehn.-|Leuch- ten a- bends ü- ber mir die|Ster- ne, *|dann ver- sinkt um mich die wei- te|Welt|
"A" EEDE FEDC |"E" B,B,EF"C#" G2 AG |"F#" F2 C2 D2 E2 | %15
w: Hier al- lein bin ich zu Hau- se,|hier ge- hör ich hin, weil ich|hier ge- bo- ren|
w: und ich sen- de tau- send Grü- ße|nur zu dur al- lein, wo's am|bes- ten mir ge-|
"F#m/A""_bei der Wiederholung zu Takt 24 springen" F4-"B" F2 G,A, |"E" B,2 GF E2 G,B, | %17
w: bin. * Klei- ner|Bär von Ber- lin, schau mich|
w: fällt. * * *||
"F#m" A,2 z2 z2 F,G, | A,2 FE"B" DCB,A, |"E" G,2 z2 z2 G,A, | B,2 GF E2 B,=C |"A" C2 AG F2 CE | %22
w: an, denn du|bist un- ser klei- ner Ta- lis-|man. Wo auch|im- mer ich bin, die Ge-|dan- .ken doch ziehn in die|
w: |||||
"C#m" E2 ED"F#" CCDE |"F#m/A" F4-"B" F2 G,A, |"E" B,2 GF E2 G,B, |"F#m" A,2 z2 z2 F,G, | %26
w: Stadt, die ich nicht ver- ges- sen|kann. * Klei- ner-|Bär von Ber- lin, bring mir|Glück, ei- nes|
w: |* * Klei- ner|Bär von Ber- lin, du wirst|sehn: Dei- ne|
 A,2 FE"B" DCB,A, |"E" G,2 z2 z2 G,A, | B,2 GF E2 B,=C |"A" C2 AG"F#m/A" F2 FE | %30
w: Tags komm nach Hau- se ich zu-|man.rück. Wenn auch|Jah- re ver- gehn, bis wir|uns wie- der- sehn, ich komm|
w: Stadt, die wird wie- der groß und|schön. Wenn auch|Zei- ten ver- gehn, du wirst|im- mer be- stehn, klei- ner|
"B" D2 DC"B7" B,2 CD |"E" E8 |] %32
w: heim, klei- ner Bär, nach Ber-|lin.-|
w: Bär, du wirst nie un- ter-|gehn.|

